images/6603859.svg

<?xml version="1.0" encoding="UTF-8"?>
<svg xmlns="http://www.w3.org/2000/svg" xmlns:xlink="http://www.w3.org/1999/xlink" width="300pt" height="300pt" viewBox="0 0 300 300" version="1.1">
<defs>
<g>
<symbol overflow="visible" id="glyph0-0">
<path style="stroke:none;" d="M 0.796875 2.828125 L 0.796875 -11.28125 L 8.796875 -11.28125 L 8.796875 2.828125 Z M 1.703125 1.9375 L 7.90625 1.9375 L 7.90625 -10.390625 L 1.703125 -10.390625 Z M 1.703125 1.9375 "/>
</symbol>
<symbol overflow="visible" id="glyph0-1">
<path style="stroke:none;" d="M 6.3125 -10.59375 C 5.164062 -10.59375 4.253906 -10.164062 3.578125 -9.3125 C 2.898438 -8.457031 2.5625 -7.296875 2.5625 -5.828125 C 2.5625 -4.359375 2.898438 -3.195312 3.578125 -2.34375 C 4.253906 -1.488281 5.164062 -1.0625 6.3125 -1.0625 C 7.457031 -1.0625 8.363281 -1.488281 9.03125 -2.34375 C 9.695312 -3.195312 10.03125 -4.359375 10.03125 -5.828125 C 10.03125 -7.296875 9.695312 -8.457031 9.03125 -9.3125 C 8.363281 -10.164062 7.457031 -10.59375 6.3125 -10.59375 Z M 6.3125 -11.875 C 7.945312 -11.875 9.253906 -11.328125 10.234375 -10.234375 C 11.210938 -9.140625 11.703125 -7.671875 11.703125 -5.828125 C 11.703125 -3.984375 11.210938 -2.507812 10.234375 -1.40625 C 9.253906 -0.3125 7.945312 0.234375 6.3125 0.234375 C 4.664062 0.234375 3.351562 -0.3125 2.375 -1.40625 C 1.394531 -2.507812 0.90625 -3.984375 0.90625 -5.828125 C 0.90625 -7.671875 1.394531 -9.140625 2.375 -10.234375 C 3.351562 -11.328125 4.664062 -11.875 6.3125 -11.875 Z M 6.3125 -11.875 "/>
</symbol>
<symbol overflow="visible" id="glyph0-2">
<path style="stroke:none;" d="M 1.578125 -11.671875 L 3.15625 -11.671875 L 3.15625 -6.890625 L 8.890625 -6.890625 L 8.890625 -11.671875 L 10.46875 -11.671875 L 10.46875 0 L 8.890625 0 L 8.890625 -5.5625 L 3.15625 -5.5625 L 3.15625 0 L 1.578125 0 Z M 1.578125 -11.671875 "/>
</symbol>
<symbol overflow="visible" id="glyph0-3">
<path style="stroke:none;" d="M 1.578125 -11.671875 L 3.703125 -11.671875 L 8.875 -1.90625 L 8.875 -11.671875 L 10.40625 -11.671875 L 10.40625 0 L 8.28125 0 L 3.109375 -9.765625 L 3.109375 0 L 1.578125 0 Z M 1.578125 -11.671875 "/>
</symbol>
<symbol overflow="visible" id="glyph1-0">
<path style="stroke:none;" d="M 0.640625 2.296875 L 0.640625 -9.171875 L 7.140625 -9.171875 L 7.140625 2.296875 Z M 1.375 1.578125 L 6.421875 1.578125 L 6.421875 -8.4375 L 1.375 -8.4375 Z M 1.375 1.578125 "/>
</symbol>
<symbol overflow="visible" id="glyph1-1">
<path style="stroke:none;" d="M 2.5 -1.078125 L 6.96875 -1.078125 L 6.96875 0 L 0.953125 0 L 0.953125 -1.078125 C 1.441406 -1.578125 2.101562 -2.25 2.9375 -3.09375 C 3.78125 -3.945312 4.3125 -4.5 4.53125 -4.75 C 4.9375 -5.207031 5.21875 -5.597656 5.375 -5.921875 C 5.539062 -6.242188 5.625 -6.554688 5.625 -6.859375 C 5.625 -7.367188 5.445312 -7.78125 5.09375 -8.09375 C 4.75 -8.40625 4.289062 -8.5625 3.71875 -8.5625 C 3.3125 -8.5625 2.882812 -8.492188 2.4375 -8.359375 C 2 -8.222656 1.523438 -8.007812 1.015625 -7.71875 L 1.015625 -9.015625 C 1.535156 -9.222656 2.019531 -9.378906 2.46875 -9.484375 C 2.914062 -9.597656 3.320312 -9.65625 3.6875 -9.65625 C 4.675781 -9.65625 5.460938 -9.40625 6.046875 -8.90625 C 6.628906 -8.414062 6.921875 -7.757812 6.921875 -6.9375 C 6.921875 -6.550781 6.847656 -6.179688 6.703125 -5.828125 C 6.554688 -5.484375 6.289062 -5.078125 5.90625 -4.609375 C 5.800781 -4.484375 5.460938 -4.125 4.890625 -3.53125 C 4.328125 -2.945312 3.53125 -2.128906 2.5 -1.078125 Z M 2.5 -1.078125 "/>
</symbol>
</g>
</defs>
<g id="surface51785">
<rect x="0" y="0" width="300" height="300" style="fill:rgb(100%,100%,100%);fill-opacity:1;stroke:none;"/>
<path style="fill:none;stroke-width:1.2;stroke-linecap:butt;stroke-linejoin:miter;stroke:rgb(0%,0%,0%);stroke-opacity:1;stroke-miterlimit:10;" d="M 136.261719 138.101562 L 112.214844 167.847656 "/>
<path style="fill:none;stroke-width:1;stroke-linecap:butt;stroke-linejoin:miter;stroke:rgb(0%,0%,0%);stroke-opacity:1;stroke-miterlimit:10;" d="M 174.042969 144.050781 L 174.042969 144.050781 M 171.207031 143.074219 L 171.046875 144.105469 M 168.371094 142.101562 L 168.046875 144.160156 M 165.53125 141.125 L 165.046875 144.21875 M 162.695312 140.152344 L 162.046875 144.273438 M 159.859375 139.179688 L 159.046875 144.328125 M 157.019531 138.203125 L 156.046875 144.382812 M 154.183594 137.230469 L 153.046875 144.4375 M 151.347656 136.253906 L 150.046875 144.496094 M 148.507812 135.28125 L 147.050781 144.550781 M 145.671875 134.304688 L 144.050781 144.605469 M 142.835938 133.332031 L 141.050781 144.660156 M 139.996094 132.355469 L 138.050781 144.714844 M 137.308594 131.433594 L 135.210938 144.769531 "/>
<path style="fill:none;stroke-width:1.2;stroke-linecap:butt;stroke-linejoin:miter;stroke:rgb(0%,0%,0%);stroke-opacity:1;stroke-miterlimit:10;" d="M 112.214844 167.847656 L 74.429688 161.898438 "/>
<path style="fill:none;stroke-width:1.2;stroke-linecap:butt;stroke-linejoin:miter;stroke:rgb(0%,0%,0%);stroke-opacity:1;stroke-miterlimit:10;" d="M 78.628906 160.28125 L 71.761719 142.433594 "/>
<path style="fill:none;stroke-width:1.2;stroke-linecap:butt;stroke-linejoin:miter;stroke:rgb(100%,0%,0%);stroke-opacity:1;stroke-miterlimit:10;" d="M 71.761719 142.433594 L 64.890625 124.585938 "/>
<path style="fill:none;stroke-width:1.2;stroke-linecap:butt;stroke-linejoin:miter;stroke:rgb(0%,0%,0%);stroke-opacity:1;stroke-miterlimit:10;" d="M 70.230469 163.515625 L 63.363281 145.667969 "/>
<path style="fill:none;stroke-width:1.2;stroke-linecap:butt;stroke-linejoin:miter;stroke:rgb(100%,0%,0%);stroke-opacity:1;stroke-miterlimit:10;" d="M 63.363281 145.667969 L 56.492188 127.820312 "/>
<path style="fill:none;stroke-width:1.2;stroke-linecap:butt;stroke-linejoin:miter;stroke:rgb(0%,0%,0%);stroke-opacity:1;stroke-miterlimit:10;" d="M 74.429688 161.898438 L 62.410156 176.773438 "/>
<path style="fill:none;stroke-width:1.2;stroke-linecap:butt;stroke-linejoin:miter;stroke:rgb(100%,0%,0%);stroke-opacity:1;stroke-miterlimit:10;" d="M 62.410156 176.773438 L 50.386719 191.648438 "/>
<path style=" stroke:none;fill-rule:nonzero;fill:rgb(100%,100%,100%);fill-opacity:1;" d="M 47.691406 116.703125 L 60.691406 116.703125 L 60.691406 135.703125 L 47.691406 135.703125 Z M 47.691406 116.703125 "/>
<g style="fill:rgb(100%,0%,0%);fill-opacity:1;">
  <use xlink:href="#glyph0-1" x="47.691406" y="131.554688"/>
</g>
<path style=" stroke:none;fill-rule:nonzero;fill:rgb(100%,100%,100%);fill-opacity:1;" d="M 25.386719 182.148438 L 50.386719 182.148438 L 50.386719 201.148438 L 25.386719 201.148438 Z M 25.386719 182.148438 "/>
<g style="fill:rgb(100%,0%,0%);fill-opacity:1;">
  <use xlink:href="#glyph0-2" x="25.386719" y="197"/>
  <use xlink:href="#glyph0-1" x="37.417969" y="197"/>
</g>
<path style="fill:none;stroke-width:1.2;stroke-linecap:butt;stroke-linejoin:miter;stroke:rgb(0%,0%,0%);stroke-opacity:1;stroke-miterlimit:10;" d="M 174.042969 144.050781 L 198.089844 114.304688 "/>
<path style="fill:none;stroke-width:1.2;stroke-linecap:butt;stroke-linejoin:miter;stroke:rgb(0%,0%,0%);stroke-opacity:1;stroke-miterlimit:10;" d="M 174.042969 144.050781 L 180.914062 161.898438 "/>
<path style="fill:none;stroke-width:1.2;stroke-linecap:butt;stroke-linejoin:miter;stroke:rgb(0%,0%,100%);stroke-opacity:1;stroke-miterlimit:10;" d="M 180.914062 161.898438 L 187.785156 179.746094 "/>
<path style="fill:none;stroke-width:1.2;stroke-linecap:butt;stroke-linejoin:miter;stroke:rgb(0%,0%,0%);stroke-opacity:1;stroke-miterlimit:10;" d="M 202.289062 112.6875 L 195.417969 94.839844 "/>
<path style="fill:none;stroke-width:1.2;stroke-linecap:butt;stroke-linejoin:miter;stroke:rgb(100%,0%,0%);stroke-opacity:1;stroke-miterlimit:10;" d="M 195.417969 94.839844 L 188.550781 76.988281 "/>
<path style="fill:none;stroke-width:1.2;stroke-linecap:butt;stroke-linejoin:miter;stroke:rgb(0%,0%,0%);stroke-opacity:1;stroke-miterlimit:10;" d="M 193.890625 115.917969 L 187.019531 98.070312 "/>
<path style="fill:none;stroke-width:1.2;stroke-linecap:butt;stroke-linejoin:miter;stroke:rgb(100%,0%,0%);stroke-opacity:1;stroke-miterlimit:10;" d="M 187.019531 98.070312 L 180.148438 80.222656 "/>
<path style="fill:none;stroke-width:1.2;stroke-linecap:butt;stroke-linejoin:miter;stroke:rgb(0%,0%,0%);stroke-opacity:1;stroke-miterlimit:10;" d="M 198.089844 114.304688 L 216.980469 117.277344 "/>
<path style="fill:none;stroke-width:1.2;stroke-linecap:butt;stroke-linejoin:miter;stroke:rgb(100%,0%,0%);stroke-opacity:1;stroke-miterlimit:10;" d="M 216.980469 117.277344 L 235.875 120.253906 "/>
<path style=" stroke:none;fill-rule:nonzero;fill:rgb(100%,100%,100%);fill-opacity:1;" d="M 171.347656 69.105469 L 184.347656 69.105469 L 184.347656 88.105469 L 171.347656 88.105469 Z M 171.347656 69.105469 "/>
<g style="fill:rgb(100%,0%,0%);fill-opacity:1;">
  <use xlink:href="#glyph0-1" x="171.347656" y="83.957031"/>
</g>
<path style=" stroke:none;fill-rule:nonzero;fill:rgb(100%,100%,100%);fill-opacity:1;" d="M 223.875 110.753906 L 248.875 110.753906 L 248.875 129.753906 L 223.875 129.753906 Z M 223.875 110.753906 "/>
<g style="fill:rgb(100%,0%,0%);fill-opacity:1;">
  <use xlink:href="#glyph0-1" x="223.875" y="125.605469"/>
  <use xlink:href="#glyph0-2" x="236.46875" y="125.605469"/>
</g>
<path style="fill:none;stroke-width:1.2;stroke-linecap:butt;stroke-linejoin:miter;stroke:rgb(0%,0%,100%);stroke-opacity:1;stroke-miterlimit:10;" d="M 187.785156 179.746094 L 206.675781 182.722656 "/>
<path style="fill:none;stroke-width:1.2;stroke-linecap:butt;stroke-linejoin:miter;stroke:rgb(0%,0%,0%);stroke-opacity:1;stroke-miterlimit:10;" d="M 206.675781 182.722656 L 225.570312 185.695312 "/>
<path style="fill:none;stroke-width:1.2;stroke-linecap:butt;stroke-linejoin:miter;stroke:rgb(0%,0%,100%);stroke-opacity:1;stroke-miterlimit:10;" d="M 190.164062 189.234375 L 205.277344 191.613281 "/>
<path style="fill:none;stroke-width:1.2;stroke-linecap:butt;stroke-linejoin:miter;stroke:rgb(0%,0%,0%);stroke-opacity:1;stroke-miterlimit:10;" d="M 205.277344 191.613281 L 220.390625 193.992188 "/>
<path style=" stroke:none;fill-rule:nonzero;fill:rgb(100%,100%,100%);fill-opacity:1;" d="M 181.785156 170.246094 L 193.785156 170.246094 L 193.785156 189.246094 L 181.785156 189.246094 Z M 181.785156 170.246094 "/>
<g style="fill:rgb(0%,0%,100%);fill-opacity:1;">
  <use xlink:href="#glyph0-3" x="181.785156" y="185.097656"/>
</g>
<path style="fill:none;stroke-width:1.2;stroke-linecap:butt;stroke-linejoin:miter;stroke:rgb(0%,0%,0%);stroke-opacity:1;stroke-miterlimit:10;" d="M 225.570312 185.695312 L 232.4375 203.546875 "/>
<path style="fill:none;stroke-width:1.2;stroke-linecap:butt;stroke-linejoin:miter;stroke:rgb(0%,0%,100%);stroke-opacity:1;stroke-miterlimit:10;" d="M 232.4375 203.546875 L 239.308594 221.394531 "/>
<path style="fill:none;stroke-width:1.2;stroke-linecap:butt;stroke-linejoin:miter;stroke:rgb(0%,0%,0%);stroke-opacity:1;stroke-miterlimit:10;" d="M 225.570312 185.695312 L 237.589844 170.824219 "/>
<path style="fill:none;stroke-width:1.2;stroke-linecap:butt;stroke-linejoin:miter;stroke:rgb(0%,0%,100%);stroke-opacity:1;stroke-miterlimit:10;" d="M 237.589844 170.824219 L 249.613281 155.949219 "/>
<path style=" stroke:none;fill-rule:nonzero;fill:rgb(100%,100%,100%);fill-opacity:1;" d="M 223.308594 209.894531 L 256.308594 209.894531 L 256.308594 232.894531 L 223.308594 232.894531 Z M 223.308594 209.894531 "/>
<g style="fill:rgb(0%,0%,100%);fill-opacity:1;">
  <use xlink:href="#glyph0-3" x="223.308594" y="224.746094"/>
  <use xlink:href="#glyph0-2" x="235.277344" y="224.746094"/>
</g>
<g style="fill:rgb(0%,0%,100%);fill-opacity:1;">
  <use xlink:href="#glyph1-1" x="247.308594" y="229.628906"/>
</g>
<path style=" stroke:none;fill-rule:nonzero;fill:rgb(100%,100%,100%);fill-opacity:1;" d="M 233.613281 144.449219 L 266.613281 144.449219 L 266.613281 167.449219 L 233.613281 167.449219 Z M 233.613281 144.449219 "/>
<g style="fill:rgb(0%,0%,100%);fill-opacity:1;">
  <use xlink:href="#glyph0-3" x="233.613281" y="159.300781"/>
  <use xlink:href="#glyph0-2" x="245.582031" y="159.300781"/>
</g>
<g style="fill:rgb(0%,0%,100%);fill-opacity:1;">
  <use xlink:href="#glyph1-1" x="257.613281" y="164.183594"/>
</g>
</g>
</svg>

<svg xmlns="http://www.w3.org/2000/svg" xmlns:xlink="http://www.w3.org/1999/xlink" width="300pt" height="300pt" viewBox="0 0 300 300"><defs><symbol overflow="visible"><path d="M.797 2.828v-14.11h8V2.83zm.906-.89h6.203v-12.33H1.703zm0 0"/></symbol><symbol overflow="visible" id="a"><path d="M6.313-10.594c-1.15 0-2.06.43-2.735 1.28-.68.857-1.015 2.017-1.015 3.486 0 1.47.335 2.633 1.015 3.484.676.856 1.586 1.28 2.735 1.28 1.144.002 2.05-.424 2.718-1.28.665-.85 1-2.015 1-3.484 0-1.47-.335-2.63-1-3.484-.667-.852-1.573-1.282-2.717-1.282zm0-1.28c1.632 0 2.94.546 3.92 1.64.978 1.093 1.47 2.562 1.47 4.406 0 1.844-.492 3.32-1.47 4.422-.98 1.093-2.288 1.64-3.92 1.64-1.65 0-2.96-.546-3.938-1.64-.98-1.102-1.47-2.578-1.47-4.422 0-1.844.49-3.313 1.47-4.406.977-1.094 2.29-1.64 3.938-1.64zm0 0"/></symbol><symbol overflow="visible" id="b"><path d="M1.578-11.672h1.578v4.78H8.89v-4.78h1.58V0H8.89v-5.563H3.157V0H1.578zm0 0"/></symbol><symbol overflow="visible" id="c"><path d="M1.578-11.672h2.125l5.172 9.766v-9.766h1.53V0H8.282L3.11-9.766V0H1.577zm0 0"/></symbol><symbol overflow="visible"><path d="M.64 2.297v-11.47h6.5v11.47zm.735-.72h5.047V-8.436H1.375zm0 0"/></symbol><symbol overflow="visible" id="d"><path d="M2.5-1.078h4.47V0H.952v-1.078c.488-.5 1.15-1.172 1.985-2.016C3.78-3.944 4.312-4.5 4.53-4.75c.407-.457.69-.848.845-1.172.164-.32.25-.633.25-.937 0-.507-.18-.92-.53-1.234-.345-.312-.806-.47-1.376-.47-.408.002-.837.072-1.283.205-.437.137-.914.352-1.42.64v-1.296c.518-.207 1.003-.363 1.452-.468.444-.114.85-.172 1.217-.172.99 0 1.774.25 2.36.75.582.492.875 1.148.875 1.97 0 .385-.074.756-.22 1.108-.147.344-.413.75-.796 1.22-.105.124-.445.483-1.015 1.077-.562.585-1.36 1.4-2.39 2.452zm0 0"/></symbol></defs><g><path fill="#fff" d="M0 0h300v300H0z"/><path d="M136.262 138.102l-24.047 29.746" stroke-width="1.2" stroke="#000" stroke-miterlimit="10" fill="none"/><path d="M174.043 144.05m-2.836-.976l-.16 1.03m-2.676-2.002l-.323 2.058m-2.516-3.035l-.483 3.094m-2.352-4.068l-.648 4.12m-2.188-5.092l-.813 5.148m-2.027-6.125l-.973 6.18m-1.863-7.153l-1.137 7.208m-1.7-8.184l-1.3 8.242m-1.54-9.215l-1.456 9.27m-1.378-10.245l-1.62 10.3m-1.216-11.273l-1.785 11.328m-1.054-12.305l-1.945 12.36m-.74-13.28l-2.1 13.335" stroke="#000" stroke-miterlimit="10" fill="none"/><path d="M112.215 167.848l-37.785-5.95M78.63 160.28l-6.868-17.846" stroke-width="1.2" stroke="#000" stroke-miterlimit="10" fill="none"/><path d="M71.762 142.434l-6.87-17.848" stroke-width="1.2" stroke="#f00" stroke-miterlimit="10" fill="none"/><path d="M70.23 163.516l-6.867-17.848" stroke-width="1.2" stroke="#000" stroke-miterlimit="10" fill="none"/><path d="M63.363 145.668l-6.87-17.848" stroke-width="1.2" stroke="#f00" stroke-miterlimit="10" fill="none"/><path d="M74.43 161.898l-12.02 14.875" stroke-width="1.2" stroke="#000" stroke-miterlimit="10" fill="none"/><path d="M62.41 176.773l-12.023 14.875" stroke-width="1.2" stroke="#f00" stroke-miterlimit="10" fill="none"/><path d="M47.69 116.703h13v19h-13zm0 0" fill="#fff"/><use xlink:href="#a" x="47.691" y="131.555" fill="#f00"/><path d="M25.387 182.148h25v19h-25zm0 0" fill="#fff"/><g fill="#f00"><use xlink:href="#b" x="25.387" y="197"/><use xlink:href="#a" x="37.418" y="197"/></g><path d="M174.043 144.05l24.047-29.745M174.043 144.05l6.87 17.848" stroke-width="1.2" stroke="#000" stroke-miterlimit="10" fill="none"/><path d="M180.914 161.898l6.87 17.848" stroke-width="1.2" stroke="#00f" stroke-miterlimit="10" fill="none"/><path d="M202.29 112.688l-6.872-17.848" stroke-width="1.2" stroke="#000" stroke-miterlimit="10" fill="none"/><path d="M195.418 94.84l-6.867-17.852" stroke-width="1.2" stroke="#f00" stroke-miterlimit="10" fill="none"/><path d="M193.89 115.918l-6.87-17.848" stroke-width="1.2" stroke="#000" stroke-miterlimit="10" fill="none"/><path d="M187.02 98.07l-6.872-17.847" stroke-width="1.2" stroke="#f00" stroke-miterlimit="10" fill="none"/><path d="M198.09 114.305l18.89 2.972" stroke-width="1.2" stroke="#000" stroke-miterlimit="10" fill="none"/><path d="M216.98 117.277l18.895 2.977" stroke-width="1.2" stroke="#f00" stroke-miterlimit="10" fill="none"/><path d="M171.348 69.105h13v19h-13zm0 0" fill="#fff"/><use xlink:href="#a" x="171.348" y="83.957" fill="#f00"/><path d="M223.875 110.754h25v19h-25zm0 0" fill="#fff"/><g fill="#f00"><use xlink:href="#a" x="223.875" y="125.605"/><use xlink:href="#b" x="236.469" y="125.605"/></g><path d="M187.785 179.746l18.89 2.977" stroke-width="1.2" stroke="#00f" stroke-miterlimit="10" fill="none"/><path d="M206.676 182.723l18.894 2.972" stroke-width="1.2" stroke="#000" stroke-miterlimit="10" fill="none"/><path d="M190.164 189.234l15.113 2.38" stroke-width="1.2" stroke="#00f" stroke-miterlimit="10" fill="none"/><path d="M205.277 191.613l15.114 2.38" stroke-width="1.2" stroke="#000" stroke-miterlimit="10" fill="none"/><path d="M181.785 170.246h12v19h-12zm0 0" fill="#fff"/><use xlink:href="#c" x="181.785" y="185.098" fill="#00f"/><path d="M225.57 185.695l6.868 17.852" stroke-width="1.2" stroke="#000" stroke-miterlimit="10" fill="none"/><path d="M232.438 203.547l6.87 17.848" stroke-width="1.2" stroke="#00f" stroke-miterlimit="10" fill="none"/><path d="M225.57 185.695l12.02-14.87" stroke-width="1.2" stroke="#000" stroke-miterlimit="10" fill="none"/><path d="M237.59 170.824l12.023-14.875" stroke-width="1.2" stroke="#00f" stroke-miterlimit="10" fill="none"/><path d="M223.31 209.895h33v23h-33zm0 0" fill="#fff"/><g fill="#00f"><use xlink:href="#c" x="223.309" y="224.746"/><use xlink:href="#b" x="235.277" y="224.746"/></g><use xlink:href="#d" x="247.309" y="229.629" fill="#00f"/><path d="M233.613 144.45h33v23h-33zm0 0" fill="#fff"/><g fill="#00f"><use xlink:href="#c" x="233.613" y="159.301"/><use xlink:href="#b" x="245.582" y="159.301"/></g><use xlink:href="#d" x="257.613" y="164.184" fill="#00f"/></g></svg>
